packages/kaspersky-hexa-ui-icons/src/iconsSVGs/48/DataCleaner.svg

<svg width="48" height="48" viewBox="0 0 48 48" fill="none" xmlns="http://www.w3.org/2000/svg">
<path fill-rule="evenodd" clip-rule="evenodd" d="M35.41 0H5V48H43V7.59L35.41 0ZM36 3.41L39.59 7H36V3.41ZM7 46V2H34V9H41V46H7ZM11 30C11 31.6569 12.3431 33 14 33H20V34C20.0043 34.7102 20.3849 35.3649 21 35.72V42H23V36H25V42H27V35.72C27.6151 35.3649 27.9957 34.7102 28 34V33H34C35.6569 33 37 31.6569 37 30V24H11V30ZM26 34H22V33H26V34ZM34 31H14C13.4477 31 13 30.5523 13 30V29H35V30C35 30.5523 34.5523 31 34 31ZM35 26V27H13V26H35ZM13 22H11V15H13V22ZM13 14H11V11H13V14ZM17 22H15V20H17V22ZM17 19H15V12H17V19ZM21 22H19V18H21V22ZM21 17H19V14H21V17ZM33 22H31V20H33V22ZM33 19H31V13H33V19ZM29 22H27V19H29V22ZM29 18H27V16H29V18ZM25 22H23V15H25V22ZM25 14H23V12H25V14ZM35 14H37V22H35V14ZM35 11H37V13H35V11Z"  fill="currentColor"/>
</svg>

<svg xmlns="http://www.w3.org/2000/svg" width="48" height="48" fill="none" viewBox="0 0 48 48"><path fill="currentColor" fill-rule="evenodd" d="M35.41 0H5v48h38V7.59zM36 3.41 39.59 7H36zM7 46V2h27v7h7v37zm4-16c0 1.6569 1.3431 3 3 3h6v1a2 2 0 0 0 1 1.72V42h2v-6h2v6h2v-6.28A2 2 0 0 0 28 34v-1h6c1.6569 0 3-1.3431 3-3v-6H11zm15 4h-4v-1h4zm8-3H14c-.5523 0-1-.4477-1-1v-1h22v1c0 .5523-.4477 1-1 1m1-5v1H13v-1zm-22-4h-2v-7h2zm0-8h-2v-3h2zm4 8h-2v-2h2zm0-3h-2v-7h2zm4 3h-2v-4h2zm0-5h-2v-3h2zm12 5h-2v-2h2zm0-3h-2v-6h2zm-4 3h-2v-3h2zm0-4h-2v-2h2zm-4 4h-2v-7h2zm0-8h-2v-2h2zm10 0h2v8h-2zm0-3h2v2h-2z" clip-rule="evenodd"/></svg>
